optimized/24/outline/resume.svg

<svg viewBox="0 0 24 24" fill="none" xmlns="http://www.w3.org/2000/svg">
  <g clip-path="url(#clip0_2627_42206)">
    <path fill-rule="evenodd" clip-rule="evenodd" d="M14.5 8.25C14.5 8.89452 14.2561 9.48207 13.8556 9.9254C15.273 10.6144 16.25 12.0681 16.25 13.75C16.25 14.1642 15.9142 14.5 15.5 14.5C15.0858 14.5 14.75 14.1642 14.75 13.75C14.75 12.2312 13.5188 11 12 11C10.4812 11 9.25 12.2312 9.25 13.75C9.25 14.1642 8.91421 14.5 8.5 14.5C8.08579 14.5 7.75 14.1642 7.75 13.75C7.75 12.0681 8.727 10.6144 10.1444 9.9254C9.7439 9.48207 9.5 8.89452 9.5 8.25C9.5 6.86929 10.6193 5.75 12 5.75C13.3807 5.75 14.5 6.86929 14.5 8.25ZM13 8.25C13 8.80228 12.5523 9.25 12 9.25C11.4477 9.25 11 8.80228 11 8.25C11 7.69772 11.4477 7.25 12 7.25C12.5523 7.25 13 7.69772 13 8.25Z" fill="#333333"/>
    <path d="M8.5 16C8.08579 16 7.75 16.3358 7.75 16.75C7.75 17.1642 8.08579 17.5 8.5 17.5H11C11.4142 17.5 11.75 17.1642 11.75 16.75C11.75 16.3358 11.4142 16 11 16H8.5Z" fill="#333333"/>
    <path fill-rule="evenodd" clip-rule="evenodd" d="M7 2C5.34315 2 4 3.34315 4 5V19C4 20.6569 5.34315 22 7 22H13.7574C14.553 22 15.3161 21.6839 15.8787 21.1213L19.1213 17.8787C19.6839 17.3161 20 16.553 20 15.7574V5C20 3.34315 18.6569 2 17 2H7ZM17 3.5H7C6.17157 3.5 5.5 4.17157 5.5 5V19C5.5 19.8284 6.17157 20.5 7 20.5H13.25V19C13.25 16.9289 14.9289 15.25 17 15.25H18.5V5C18.5 4.17157 17.8284 3.5 17 3.5ZM14.818 20.0607C14.7959 20.0827 14.7733 20.104 14.75 20.1246V19C14.75 17.7574 15.7574 16.75 17 16.75H18.1246C18.104 16.7733 18.0827 16.7959 18.0607 16.818L14.818 20.0607Z" fill="#333333"/>
  </g>
  <defs>
    <clipPath id="clip0_2627_42206">
      <rect width="24" height="24" fill="white"/>
    </clipPath>
  </defs>
</svg>

<svg xmlns="http://www.w3.org/2000/svg" width="24" height="24" fill="none">
  <g fill="#333" clip-path="url(#a)">
    <path fill-rule="evenodd" d="M14.5 8.25c0 .645-.244 1.232-.644 1.675a4.25 4.25 0 0 1 2.394 3.825.75.75 0 0 1-1.5 0 2.75 2.75 0 1 0-5.5 0 .75.75 0 0 1-1.5 0 4.25 4.25 0 0 1 2.394-3.825A2.5 2.5 0 1 1 14.5 8.25Zm-1.5 0a1 1 0 1 1-2 0 1 1 0 0 1 2 0Z" clip-rule="evenodd"/>
    <path d="M8.5 16a.75.75 0 0 0 0 1.5H11a.75.75 0 0 0 0-1.5H8.5Z"/>
    <path fill-rule="evenodd" d="M7 2a3 3 0 0 0-3 3v14a3 3 0 0 0 3 3h6.757a3 3 0 0 0 2.122-.879l3.242-3.242A3 3 0 0 0 20 15.757V5a3 3 0 0 0-3-3H7Zm10 1.5H7A1.5 1.5 0 0 0 5.5 5v14A1.5 1.5 0 0 0 7 20.5h6.25V19A3.75 3.75 0 0 1 17 15.25h1.5V5A1.5 1.5 0 0 0 17 3.5Zm-2.182 16.56a1.576 1.576 0 0 1-.068.065V19A2.25 2.25 0 0 1 17 16.75h1.125l-.064.068-3.243 3.243Z" clip-rule="evenodd"/>
  </g>
  <defs>
    <clipPath id="a">
      <path fill="#fff" d="M0 0h24v24H0z"/>
    </clipPath>
  </defs>
</svg>
